X: 11
T:Unknown 3
M:C
L:1/4
Q:100
R:March
K:C
G/2F/2|ECC D/2E/2|GGG A/2B/2|cccB|G2G G/2F/2|
DCC D/2E/2|GGG A/2B/2|cEF/2E/2D|C2-C::
A/2B/2|cccB|AGcE|GGGF|ECDG/2F/2|
ECC D/2E/2|GGG A/2B/2|cEF/2E/2D|C2-C:|
